src/assets/img/bio/small-circle--blue.svg

<svg fill="none" height="35" viewBox="0 0 80 35" width="80" xmlns="http://www.w3.org/2000/svg"><path clip-rule="evenodd" d="m30.6814 3.50762c-6.1935.02448-11.804 1.64016-17.0105 3.94421-5.73386 2.53809-8.72479 6.52437-9.31571 11.52617-.35715 3.0179 1.05196 5.4864 3.95329 7.5428 1.85582 1.3141 4.04552 2.1826 6.40392 2.7917 2.9442.7608 5.9728 1.3542 9.1027 1.3846 7.2429.0714 21.6064.2993 32.0592-1.3846 10.4529-1.684 12.8045-1.3835 16.0092-3.3001 4.9075-2.9351 4.9545-4.6065 4.9545-8.9791 0-1.7189-1.1013-3.0538-3.221-4.9214-2.1198-1.8675-8.3226-5.23668-8.8902-5.42175-8.6208-2.8152-19.4569-4.04912-30.3921-3.18351-.3416 0-1.9974-.0049-3.6533.00098zm34.9938 0c3.491 1.1721 7.7859 4.25991 10.2339 6.41415 2.1572 1.89963 6.7609 9.05623 2.0319 15.45903-4.7289 6.4027-7.6089 5.3163-20.6469 7.5117-8.1717 1.3761-29.514 1.9397-38.0271.7284-2.8714-.4083-5.6507-1.0076-8.3247-1.88-2.90655-.9479-5.3845-2.3442-7.38842-4.1979-2.30651-2.1336-3.5857446-4.5669-3.55327672-7.341.07792282-6.8015 3.82341672-12.18027 11.61439672-15.60062 5.7559-2.52829 12.0118-4.258536 18.8625-4.246786 1.452.001959 2.9052 0 3.2923 0 11.552-.957657 22.517.001959 31.9054 3.153026z" fill="#60a5fa" fill-rule="evenodd"/></svg>

<svg width="80" height="35" viewBox="0 0 80 35" fill="none" xmlns="http://www.w3.org/2000/svg">
<path fill-rule="evenodd" clip-rule="evenodd" d="M30.6814 3.50762C24.4879 3.5321 18.8774 5.14778 13.6709 7.45183C7.93704 9.98992 4.94611 13.9762 4.35519 18.978C3.99804 21.9959 5.40715 24.4644 8.30848 26.5208C10.1643 27.8349 12.354 28.7034 14.7124 29.3125C17.6566 30.0733 20.6852 30.6667 23.8151 30.6971C31.058 30.7685 45.4215 30.9964 55.8743 29.3125C66.3272 27.6285 68.6788 27.929 71.8835 26.0124C76.791 23.0773 76.838 21.4059 76.838 17.0333C76.838 15.3144 75.7367 13.9795 73.617 12.1119C71.4972 10.2444 65.2944 6.87522 64.7268 6.69015C56.106 3.87495 45.2699 2.64103 34.3347 3.50664C33.9931 3.50664 32.3373 3.50174 30.6814 3.50762ZM65.6752 3.50762C69.1662 4.67972 73.4611 7.76753 75.9091 9.92177C78.0663 11.8214 82.67 18.978 77.941 25.3808C73.2121 31.7835 70.3321 30.6971 57.2941 32.8925C49.1224 34.2686 27.7801 34.8322 19.267 33.6209C16.3956 33.2126 13.6163 32.6133 10.9423 31.7409C8.03575 30.793 5.5578 29.3967 3.55388 27.543C1.24737 25.4094 -0.0318646 22.9761 0.000603285 20.202C0.0785261 13.4005 3.82402 8.02173 11.615 4.60138C17.3709 2.07309 23.6268 0.342844 30.4775 0.354594C31.9295 0.356553 33.3827 0.354594 33.7698 0.354594C45.3218 -0.603063 56.2868 0.356553 65.6752 3.50762Z" fill="#60A5FA"/>
</svg>
